www/assets/icons/shelves_outline.svg

<svg xmlns="http://www.w3.org/2000/svg" width="24" height="24" viewBox="0 0 24 24" fill='currentColor'><mask id="a" width="24" height="24" x="0" y="0" maskUnits="userSpaceOnUse" style="mask-type:alpha"><path d="M0 0h24v24H0z"/></mask><g mask="url(#a)"><path d="M3 23V1h2v2h14V1h2v22h-2v-2H5v2zm2-12h2V7h6v4h6V5H5zm0 8h6v-4h6v4h2v-6H5zm4-8h2V9H9zm4 8h2v-2h-2z"/></g></svg>

<svg width="24" height="24" viewBox="0 0 24 24" xmlns="http://www.w3.org/2000/svg" fill='currentColor'><mask id="mask0_32484_508" style="mask-type:alpha" maskUnits="userSpaceOnUse" x="0" y="0" width="24" height="24"><rect width="24" height="24"/></mask><g mask="url(#mask0_32484_508)"><path d="M3 23V1H5V3H19V1H21V23H19V21H5V23H3ZM5 11H7V7H13V11H19V5H5V11ZM5 19H11V15H17V19H19V13H5V19ZM9 11H11V9H9V11ZM13 19H15V17H13V19Z"/></g></svg>
